static/img/drf-logo-small-white.svg

<svg height="44" viewBox="0 0 43 44" width="43" xmlns="http://www.w3.org/2000/svg"><g fill="#fff"><path d="m12.223 16.651c3.078 0 5.332 2.301 5.332 5.441 0 3.139-2.254 5.439-5.332 5.439h-3.948v-10.881h3.948zm0 2.176h-1.772v6.528h1.772c1.865 0 3.155-1.383 3.155-3.263-.001-1.881-1.291-3.265-3.155-3.265z"/><path d="m36.006 16.779v2.176h-4.85v2.176h4.85v2.177h-4.85v4.352h-2.176v-10.881z"/><path d="m28.997 27.672c.319-.088.637-.209.951-.372l-.869-1.484c-.028.015-.055.023-.082.035z"/><path d="m28.098 26.042c-.862-.027-1.584-.675-2.074-1.615l-.476-.914c.999-.667 1.613-1.799 1.613-3.146l-.007-.008c0-2.176-1.601-3.792-3.84-3.792h-.066-4.69v10.88h2.176v-3.278h2.503l.085-.01c.051 0 .1-.005.15-.007l.73 1.401c.809 1.555 2.303 2.367 3.896 2.27zm-3.122-5.667c0 .932-.622 1.615-1.663 1.615h-2.579v-3.248h2.58c1.042 0 1.663.685 1.663 1.616z"/><path d="m21.807 43.136c-11.671 0-21.167-9.495-21.167-21.167s9.496-21.167 21.167-21.167 21.167 9.495 21.167 21.167-9.496 21.167-21.167 21.167m0-39.334c-10.017 0-18.167 8.148-18.167 18.167 0 10.018 8.15 18.167 18.167 18.167s18.167-8.149 18.167-18.167c0-10.019-8.15-18.167-18.167-18.167"/></g></svg>

<?xml version="1.0" encoding="UTF-8"?>
<svg width="43px" height="44px" viewBox="0 0 43 44" version="1.1" xmlns="http://www.w3.org/2000/svg" xmlns:xlink="http://www.w3.org/1999/xlink">
    <!-- Generator: Sketch 42 (36781) - http://www.bohemiancoding.com/sketch -->
    <title>Group 4</title>
    <desc>Created with Sketch.</desc>
    <defs></defs>
    <g id="Page-1" stroke="none" stroke-width="1" fill="none" fill-rule="evenodd">
        <g id="Group-4" fill-rule="nonzero" fill="#FFFFFF">
            <path d="M12.223,16.651 C15.301,16.651 17.555,18.952 17.555,22.092 C17.555,25.231 15.301,27.531 12.223,27.531 L8.275,27.531 L8.275,16.65 L12.223,16.65 L12.223,16.651 Z M12.223,18.827 L10.451,18.827 L10.451,25.355 L12.223,25.355 C14.088,25.355 15.378,23.972 15.378,22.092 C15.377,20.211 14.087,18.827 12.223,18.827 L12.223,18.827 Z" id="Shape"></path>
            <polygon id="Shape" points="36.006 16.779 36.006 18.955 31.156 18.955 31.156 21.131 36.006 21.131 36.006 23.308 31.156 23.308 31.156 27.66 28.98 27.66 28.98 16.779"></polygon>
            <path d="M28.997,27.672 C29.316,27.584 29.634,27.463 29.948,27.3 L29.079,25.816 C29.051,25.831 29.024,25.839 28.997,25.851 L28.997,27.672 Z" id="Shape"></path>
            <path d="M28.098,26.042 C27.236,26.015 26.514,25.367 26.024,24.427 L25.548,23.513 C26.547,22.846 27.161,21.714 27.161,20.367 L27.154,20.359 C27.154,18.183 25.553,16.567 23.314,16.567 L23.248,16.567 L18.558,16.567 L18.558,27.447 L20.734,27.447 L20.734,24.169 L23.237,24.169 L23.322,24.159 C23.373,24.159 23.422,24.154 23.472,24.152 L24.202,25.553 C25.011,27.108 26.505,27.92 28.098,27.823 L28.098,26.042 Z M24.976,20.375 C24.976,21.307 24.354,21.99 23.313,21.99 L20.734,21.99 L20.734,18.742 L23.314,18.742 C24.356,18.742 24.977,19.427 24.977,20.358 L24.976,20.375 Z" id="Shape"></path>
            <path d="M21.807,43.136 C10.136,43.136 0.64,33.641 0.64,21.969 C0.64,10.297 10.136,0.802 21.807,0.802 C33.478,0.802 42.974,10.297 42.974,21.969 C42.974,33.641 33.478,43.136 21.807,43.136 M21.807,3.802 C11.79,3.802 3.64,11.95 3.64,21.969 C3.64,31.987 11.79,40.136 21.807,40.136 C31.824,40.136 39.974,31.987 39.974,21.969 C39.974,11.95 31.824,3.802 21.807,3.802" id="Shape"></path>
        </g>
    </g>
</svg>
